X: 1
T: Miss Margaret Gordon
R: strathspey
Z: John Chambers <jc:trillian.mit.edu>
M: 4/4
L: 1/8
K: GDor
d \
| "Gm"B<G G>A "F"F>A c<A \
| "Gm"B<G G>A B>c d<g \
| "Gm"B<G G>A "F"F>A c<d \
| "Eb"B<G "D"A>^F "Gm"G3 :|
d \
| "Gm"g<d d>f "F"A<F c<A \
| "Gm"g<d d>e "F"f>g a>g \
| "Bb"f<d d>f "F/A"F>A c<d \
| "Gm"B<G "D"A>^F "Gm"G3 |]
^f \
| "Gm"g<d d>f  "F"A<F c<A \
| "Gm"g<d d>e "Dm"f>a g<a \
|  "F"f>g d<f     c<f A<c \
| "D7"d>B d/c/B/A/ "Gm"G3 |]
